Dominus_Dark_Funeral/scalable/apps/libreoffice-main.svg

<?xml version="1.0" encoding="UTF-8" standalone="no"?><svg xmlns:dc="http://purl.org/dc/elements/1.1/" xmlns:cc="http://creativecommons.org/ns#" xmlns:rdf="http://www.w3.org/1999/02/22-rdf-syntax-ns#" xmlns="http://www.w3.org/2000/svg" width="48" height="48" viewBox="0 0 12.7 12.7"><metadata><rdf:RDF><cc:Work><dc:format>image/svg+xml</dc:format><dc:type rdf:resource="http://purl.org/dc/dcmitype/StillImage"/><dc:title/></cc:Work></rdf:RDF></metadata><defs><linearGradient id="a" x1="6.22" x2="6.51" y1="297.13" y2="283.76" gradientUnits="userSpaceOnUse"><stop stop-color="#999" offset="0"/><stop stop-color="#f9f9f9" offset="1"/></linearGradient><linearGradient id="b" x1="10.56" x2="1.89" y1="285.54" y2="294.01" gradientUnits="userSpaceOnUse"><stop stop-color="#1a1a1a" offset="0"/><stop stop-color="#1a1a1a" stop-opacity="0" offset="1"/></linearGradient></defs><path transform="translate(0 -284.3)" fill="url(#a)" d="M6.35 284.39c-1.54 0-2.78.3-3.69.88A3.67 3.67 0 0 0 1 288.52c0 1.91 1.54 4.47 2.01 5.2.54.85 1.13 1.61 1.65 2.16.68.7 1.21 1.03 1.69 1.03s1.01-.33 1.69-1.03c.52-.55 1.11-1.31 1.65-2.16.47-.73 2-3.29 2-5.2 0-1.42-.57-2.55-1.65-3.25a6.75 6.75 0 0 0-3.69-.88z"/><path transform="translate(0 -284.3)" fill="url(#b)" d="M11.15 290.82c.1-.26.22-.52.3-.78a4.61 4.61 0 0 0 .14-2.52 3.73 3.73 0 0 0-.84-1.64 3.65 3.65 0 0 0-1.45-1c-.27-.1-.56-.2-.87-.27a9 9 0 0 0-2.08-.22c-.54 0-1 .08-1.47.16z"/><path opacity=".2" d="M6.35.09c-1.54 0-2.78.3-3.69.88A3.67 3.67 0 0 0 1 4.22c0 1.91 1.54 4.47 2.01 5.2.54.85 1.13 1.61 1.65 2.16.68.7 1.21 1.03 1.69 1.03s1.01-.33 1.69-1.03c.52-.55 1.11-1.31 1.65-2.16.47-.73 2-3.29 2-5.2 0-1.42-.57-2.55-1.65-3.25A6.75 6.75 0 0 0 6.35.1zm0 .04C6.91.15 7.44.2 7.9.3a5.82 5.82 0 0 1 1.6.66 3.48 3.48 0 0 1 1.55 2.24 4.61 4.61 0 0 1-.13 2.52c-.15.52-.36 1.05-.58 1.53a18 18 0 0 1-2.83 4.32c-.34.35-.64.6-.92.78a.96.96 0 0 1-.24.1.96.96 0 0 1-.24-.1 4.76 4.76 0 0 1-.92-.78 14.41 14.41 0 0 1-1.65-2.16 18.4 18.4 0 0 1-1.18-2.16c-.22-.48-.43-1-.58-1.53a4.6 4.6 0 0 1-.14-2.52 3.73 3.73 0 0 1 .84-1.63 3.65 3.65 0 0 1 1.45-1A6.83 6.83 0 0 1 6.35.12z"/></svg>

<?xml version="1.0" encoding="UTF-8" standalone="no"?>
<svg
   xmlns:dc="http://purl.org/dc/elements/1.1/"
   xmlns:cc="http://creativecommons.org/ns#"
   xmlns:rdf="http://www.w3.org/1999/02/22-rdf-syntax-ns#"
   xmlns:svg="http://www.w3.org/2000/svg"
   xmlns="http://www.w3.org/2000/svg"
   xmlns:sodipodi="http://sodipodi.sourceforge.net/DTD/sodipodi-0.dtd"
   xmlns:inkscape="http://www.inkscape.org/namespaces/inkscape"
   width="48"
   height="48"
   viewBox="0 0 12.7 12.7"
   version="1.1"
   id="svg22"
   sodipodi:docname="libreoffice-main.svg"
   inkscape:version="0.92.4 (5da689c313, 2019-01-14)">
  <sodipodi:namedview
     pagecolor="#ffffff"
     bordercolor="#666666"
     borderopacity="1"
     objecttolerance="10"
     gridtolerance="10"
     guidetolerance="10"
     inkscape:pageopacity="0"
     inkscape:pageshadow="2"
     inkscape:window-width="1112"
     inkscape:window-height="480"
     id="namedview24"
     showgrid="false"
     inkscape:zoom="4.9166667"
     inkscape:cx="2.1355932"
     inkscape:cy="24"
     inkscape:window-x="0"
     inkscape:window-y="25"
     inkscape:window-maximized="0"
     inkscape:current-layer="svg22" />
  <metadata
     id="metadata2">
    <rdf:RDF>
      <cc:Work>
        <dc:format>image/svg+xml</dc:format>
        <dc:type
           rdf:resource="http://purl.org/dc/dcmitype/StillImage" />
        <dc:title></dc:title>
      </cc:Work>
    </rdf:RDF>
  </metadata>
  <defs
     id="defs14">
    <linearGradient
       id="a"
       x1="6.22"
       x2="6.51"
       y1="297.13"
       y2="283.76"
       gradientUnits="userSpaceOnUse"
       gradientTransform="translate(0,-284.3)">
      <stop
         stop-color="#999"
         offset="0"
         id="stop4" />
      <stop
         stop-color="#f9f9f9"
         offset="1"
         id="stop6" />
    </linearGradient>
    <linearGradient
       id="b"
       x1="10.56"
       x2="1.89"
       y1="285.54"
       y2="294.01"
       gradientUnits="userSpaceOnUse"
       gradientTransform="translate(0,-284.3)">
      <stop
         stop-color="#1a1a1a"
         offset="0"
         id="stop9" />
      <stop
         stop-color="#1a1a1a"
         stop-opacity="0"
         offset="1"
         id="stop11" />
    </linearGradient>
  </defs>
  <path
     d="m 6.35,0.09 c -1.54,0 -2.78,0.3 -3.69,0.88 A 3.67,3.67 0 0 0 1,4.22 c 0,1.91 1.54,4.47 2.01,5.2 0.54,0.85 1.13,1.61 1.65,2.16 0.68,0.7 1.21,1.03 1.69,1.03 0.48,0 1.01,-0.33 1.69,-1.03 0.52,-0.55 1.11,-1.31 1.65,-2.16 0.47,-0.73 2,-3.29 2,-5.2 0,-1.42 -0.57,-2.55 -1.65,-3.25 A 6.75,6.75 0 0 0 6.35,0.09 Z"
     id="path16"
     style="fill:url(#a)"
     inkscape:connector-curvature="0" />
  <path
     d="M 11.15,6.52 C 11.25,6.26 11.37,6 11.45,5.74 A 4.61,4.61 0 0 0 11.59,3.22 3.73,3.73 0 0 0 10.75,1.58 3.65,3.65 0 0 0 9.3,0.58 C 9.03,0.48 8.74,0.38 8.43,0.31 A 9,9 0 0 0 6.35,0.09 c -0.54,0 -1,0.08 -1.47,0.16 z"
     id="path18"
     style="fill:url(#b)"
     inkscape:connector-curvature="0" />
  <path
     d="m 6.35,0.09 c -1.54,0 -2.78,0.3 -3.69,0.88 A 3.67,3.67 0 0 0 1,4.22 c 0,1.91 1.54,4.47 2.01,5.2 0.54,0.85 1.13,1.61 1.65,2.16 0.68,0.7 1.21,1.03 1.69,1.03 0.48,0 1.01,-0.33 1.69,-1.03 0.52,-0.55 1.11,-1.31 1.65,-2.16 0.47,-0.73 2,-3.29 2,-5.2 0,-1.42 -0.57,-2.55 -1.65,-3.25 A 6.75,6.75 0 0 0 6.35,0.1 Z m 0,0.04 C 6.91,0.15 7.44,0.2 7.9,0.3 a 5.82,5.82 0 0 1 1.6,0.66 3.48,3.48 0 0 1 1.55,2.24 4.61,4.61 0 0 1 -0.13,2.52 c -0.15,0.52 -0.36,1.05 -0.58,1.53 a 18,18 0 0 1 -2.83,4.32 c -0.34,0.35 -0.64,0.6 -0.92,0.78 A 0.96,0.96 0 0 1 6.35,12.45 0.96,0.96 0 0 1 6.11,12.35 4.76,4.76 0 0 1 5.19,11.57 14.41,14.41 0 0 1 3.54,9.41 18.4,18.4 0 0 1 2.36,7.25 C 2.14,6.77 1.93,6.25 1.78,5.72 A 4.6,4.6 0 0 1 1.64,3.2 3.73,3.73 0 0 1 2.48,1.57 3.65,3.65 0 0 1 3.93,0.57 6.83,6.83 0 0 1 6.35,0.12 Z"
     id="path20"
     inkscape:connector-curvature="0"
     style="opacity:0.2" />
</svg>
